www/assets/icons/manage_accounts.svg

<svg width="24" height="24" viewBox="0 0 24 24" xmlns="http://www.w3.org/2000/svg" fill='currentColor'><path d="M10.085 11.5C12.2941 11.5 14.085 9.70914 14.085 7.5C14.085 5.29086 12.2941 3.5 10.085 3.5C7.87582 3.5 6.08496 5.29086 6.08496 7.5C6.08496 9.70914 7.87582 11.5 10.085 11.5Z"/><path d="M10.755 12.52C10.535 12.51 10.315 12.5 10.085 12.5C7.66496 12.5 5.40496 13.17 3.47496 14.32C2.59496 14.84 2.08496 15.82 2.08496 16.85V19.5H11.345C10.555 18.37 10.085 16.99 10.085 15.5C10.085 14.43 10.335 13.43 10.755 12.52Z"/><path d="M20.835 15.5C20.835 15.28 20.805 15.08 20.775 14.87L21.915 13.86L20.915 12.13L19.465 12.62C19.145 12.35 18.785 12.14 18.385 11.99L18.085 10.5H16.085L15.785 11.99C15.385 12.14 15.025 12.35 14.705 12.62L13.255 12.13L12.255 13.86L13.395 14.87C13.365 15.08 13.335 15.28 13.335 15.5C13.335 15.72 13.365 15.92 13.395 16.13L12.255 17.14L13.255 18.87L14.705 18.38C15.025 18.65 15.385 18.86 15.785 19.01L16.085 20.5H18.085L18.385 19.01C18.785 18.86 19.145 18.65 19.465 18.38L20.915 18.87L21.915 17.14L20.775 16.13C20.805 15.92 20.835 15.72 20.835 15.5ZM17.085 17.5C15.985 17.5 15.085 16.6 15.085 15.5C15.085 14.4 15.985 13.5 17.085 13.5C18.185 13.5 19.085 14.4 19.085 15.5C19.085 16.6 18.185 17.5 17.085 17.5Z"/></svg>

<svg xmlns="http://www.w3.org/2000/svg" width="24" height="24" viewBox="0 0 24 24" fill='currentColor'><path d="M10.085 11.5a4 4 0 1 0 0-8 4 4 0 0 0 0 8m.67 1.02c-.22-.01-.44-.02-.67-.02-2.42 0-4.68.67-6.61 1.82-.88.52-1.39 1.5-1.39 2.53v2.65h9.26a6.96 6.96 0 0 1-.59-6.98m10.08 2.98c0-.22-.03-.42-.06-.63l1.14-1.01-1-1.73-1.45.49q-.48-.405-1.08-.63l-.3-1.49h-2l-.3 1.49q-.6.225-1.08.63l-1.45-.49-1 1.73 1.14 1.01c-.03.21-.06.41-.06.63s.03.42.06.63l-1.14 1.01 1 1.73 1.45-.49q.48.405 1.08.63l.3 1.49h2l.3-1.49q.6-.225 1.08-.63l1.45.49 1-1.73-1.14-1.01c.03-.21.06-.41.06-.63m-3.75 2c-1.1 0-2-.9-2-2s.9-2 2-2 2 .9 2 2-.9 2-2 2"/></svg>
